X: 1828
T: Richmond Polka
B: australian traditional tunes wiki
M:2/4
L:1/16
R: Set Tune
Q: 1/4=100
K:D
V:1 
|:"D"A2f2 fgfe|d2A2 F2A2|"A7"B2E2 E2FG|(3BcBA2 F3G|
"D"A2f2 fgfe|d2A2 F2A2|"A7"(3cdcA2 B2c2|"D"[d4F4][d2F2]z2:|
|:"A"eeee e2d2|c2a2e4|c3c cccc|A2c2A2c2|
"A"eeee e2d2|c2a2 e3a|"E7"gggg gefg|1 "A"a4a4:|2 "A"a2=g2f2e2||
% abcbook-tune_id 6342d53a90b3c540c8dc482e


% abcbook-boost 0
% abcbook-tablature 
% abcbook-transpose 
% abcbook-lastupdated 1665324386470
% abcbook-soundfonts 
% abcbook-repeats 1
% NFF Book 2010

